source/media/helpimg/starmath/at21716.svg

<?xml version="1.0" encoding="UTF-8" standalone="no"?>
<svg
   xmlns:dc="http://purl.org/dc/elements/1.1/"
   xmlns:cc="http://creativecommons.org/ns#"
   xmlns:rdf="http://www.w3.org/1999/02/22-rdf-syntax-ns#"
   xmlns:svg="http://www.w3.org/2000/svg"
   xmlns="http://www.w3.org/2000/svg"
   xmlns:sodipodi="http://sodipodi.sourceforge.net/DTD/sodipodi-0.dtd"
   xmlns:inkscape="http://www.inkscape.org/namespaces/inkscape"
   version="1.1"
   id="svg6"
   sodipodi:docname="at21716.svg"
   width="7.6959"
   height="7.6959"
   inkscape:version="0.92.4 (5da689c313, 2019-01-14)">
  <metadata
     id="metadata12">
    <rdf:RDF>
      <cc:Work
         rdf:about="">
        <dc:format>image/svg+xml</dc:format>
        <dc:type
           rdf:resource="http://purl.org/dc/dcmitype/StillImage" />
        <dc:title></dc:title>
      </cc:Work>
    </rdf:RDF>
  </metadata>
  <defs
     id="defs10" />
  <sodipodi:namedview
     pagecolor="#ffffff"
     bordercolor="#666666"
     borderopacity="1"
     objecttolerance="10"
     gridtolerance="10"
     guidetolerance="10"
     inkscape:pageopacity="0"
     inkscape:pageshadow="2"
     inkscape:window-width="819"
     inkscape:window-height="480"
     id="namedview8"
     showgrid="false"
     fit-margin-top="0"
     fit-margin-left="0"
     fit-margin-right="0"
     fit-margin-bottom="0"
     inkscape:zoom="2.36"
     inkscape:cx="48.926"
     inkscape:cy="-41.366"
     inkscape:window-x="0"
     inkscape:window-y="0"
     inkscape:window-maximized="0"
     inkscape:current-layer="svg6" />
  <g
     style="fill:#818181"
     id="g4"
     transform="translate(-0.68705002,-0.93810002)">
    <path
       d="M 6.762,7.923 7.645,8.118 7.582,8.47 H 5.355 L 5.582,7.251 Q 4.262,8.634 3.168,8.634 2.222,8.634 1.644,7.939 1.074,7.243 1.074,6.024 1.074,4.657 1.668,3.47 2.269,2.274 3.269,1.61 q 1,-0.6719 2.172,-0.6719 0.946,0 1.782,0.3279 L 7.574,1.001 H 7.996 Z M 6.535,1.93 Q 6.23,1.719 5.965,1.641 5.699,1.555 5.309,1.555 q -0.782,0 -1.438,0.594 -0.649,0.586 -1.024,1.586 -0.375,1 -0.375,2.086 0,0.836 0.344,1.336 0.344,0.5 0.938,0.5 0.883,0 1.93,-1.086 z"
       id="path2"
       inkscape:connector-curvature="0" />
  </g>
</svg>

<?xml version="1.0" encoding="UTF-8" ?>
<svg xmlns="http://www.w3.org/2000/svg" version="1.1">
  <g
 style="fill:#818181;">
  <path
 d="M 6.762,7.923 7.645,8.118 7.582,8.47 H 5.355 L 5.582,7.251 Q 4.262,8.634 3.168,8.634 2.222,8.634 1.644,7.939 1.074,7.243 1.074,6.024 1.074,4.657 1.668,3.47 2.269,2.274 3.269,1.61 4.269,0.9381 5.441,0.9381 6.387,0.9381 7.223,1.266 L 7.574,1.001 H 7.996 Z M 6.535,1.93 Q 6.23,1.719 5.965,1.641 5.699,1.555 5.309,1.555 4.527,1.555 3.871,2.149 3.222,2.735 2.847,3.735 2.472,4.735 2.472,5.821 2.472,6.657 2.816,7.157 3.16,7.657 3.754,7.657 4.637,7.657 5.684,6.571 Z"

 />
</g>
</svg>
